!!!!SEGMENT: pl-kk--kk-i-6--028-004_anonim--tempore-paschali-sanctus.krn
!!!cenid: 16xx:1002
!!!COM: Anonim
!!!COM-rismID: pe30004985
!!!CDT:
!!!CNT:
!!!OPR: Tempore Paschali
!!!OTL: Sanctus
!!!OMV: 004
!!!PDT:
!!!AGN: Sacred; Easter
!!!SMS-siglum: PL-Kk
!!!SMS-shelfmark: Kk.I.6
!!!SMS-shelfwork: 028-004 M
!!!SMS-variant:
!!!SMS-altvar:
!!!NIFC-rismSourceID: 1001136067
!!!NIFC-islandoraID: pl-kk:1634
!!!URL-pdf-islandora: https://repozytorium.nifc.pl/islandora/object/pl-kk%3A1634/datastream/PDF/view
!!!URL-scan: https://polish.musicsources.pl/pl/lokalizacje/galeria/rekopisy/6133 @EN{Scan on Polish Music Sources Website} @PL{Skany w portalu Dziedzictwo Muzyki Polskiej w otwartym dostępie}
!!!ONB-nifc: UWAGA: C (skan 0038-0042, s. 72-81), T (skan 0141-0148, s. 87-100), B (skan 0251-0258, s. 85-98) Części Mszy: 1. Kyrie, 2. Et in terra, 3. Patrem, 4. Sanctus, 5. Agnus Dei
!!!AIN: 1 empty 1 tenor 1 vox
!!!key:
**kern	**text	**kern	**text	**kern	**text
*part3	*part3	*part2	*part2	*part1	*part1
*staff3	*staff3	*staff2	*staff2	*staff1	*staff1
*Iempty	*	*Itenor	*	*Ivox	*
*I"Baſsus.	*	*I"Tenor.	*	*I"Cantus.	*
*I'B.	*	*I'T.	*	*I'S.	*
*clefF4	*	*clefC4	*	*clefC4	*
*k[]	*	*k[]	*	*k[]	*
*a:	*	*a:	*	*a:	*
*M2/2	*	*M2/2	*	*M2/2	*
*met(C|)	*	*met(C|)	*	*met(C|)	*
*	*	*lig	*	*	*
!	!	!	!	!LO:TX:t=P:problem=all\center&colon; global	!
!	!	!LO:TX:t=P:problem=S wielkie, przed kluczem, na początku pięciolinii	!	!LO:TX:t=P:problem=S wielkie, przed kluczem, na początku pięciolinii	!
2r	.	1G/	SAn-	1E/	SAn-
!LO:TX:t=P:problem=S wielkie, przed kluczem, na początku pięciolinii	!	!	!	!	!
2E\	SAn-	.	.	.	.
*lig	*	*	*	*lig	*
1D\	.	1A\	.	1F/	.
*	*	*Xlig	*	*	*
=1-	=1-	=1-	=1-	=1-	=1-
1C/	.	1.c\	.	1E/	.
*Xlig	*	*	*	*Xlig	*
*	*	*	*	*lig	*
1GG/	.	.	.	1D/	.
.	.	2B\	.	.	.
=2-	=2-	=2-	=2-	=2-	=2-
1C/	.	1c\	.	1E/	.
*	*	*	*	*Xlig	*
*	*	*	*	*lig	*
1GG/	.	1B\	.	1G/	.
=3-	=3-	=3-	=3-	=3-	=3-
2.C/	.	2c\	.	1E/	.
.	.	2.e\	.	.	.
4BB/	.	.	.	.	.
*	*	*	*	*Xlig	*
*	*	*	*	*lig	*
1AA/	.	.	.	1C/	.
.	.	4d\	.	.	.
.	.	1c\	.	.	.
=4-	=4-	=4-	=4-	=4-	=4-
1GG/	.	.	.	1D/	.
.	.	2B\	.	.	.
*	*	*	*	*Xlig	*
*	*	*	*	*lig	*
2.C/	.	1.c\	.	1E/	.
4BB/	.	.	.	.	.
=5-	=5-	=5-	=5-	=5-	=5-
4AA/	.	.	.	1F/	.
4GG/	.	.	.	.	.
2FF/	.	2A/	.	.	.
*	*	*	*	*Xlig	*
1C/	.	0.G/	-ctus.	1E/	.
=6-	=6-	=6-	=6-	=6-	=6-
0GG/	-ctus.	.	.	0D/	-ctus
=7-	=7-	=7-	=7-	=7-	=7-
0C/;;	.	0G/;	.	0E/;	.
!LO:PB:g=original	!	!LO:LB:g=original	!	!LO:LB:g=original	!
=8-	=8-	=8-	=8-	=8-	=8-
*M2/2	*	*M2/2	*	*M2/2	*
*met(C|)	*	*met(C|)	*	*met(C|)	*
!LO:TX:a:t=Tempore Paſchali.	!	!	!	!	!
*	*	*	*	*lig	*
!	!	!	!	!LO:TX:t=P:problem=S wielkie, przed kluczem, na początku pięciolinii	!
0r	.	00r	.	1B\	SAn-
.	.	.	.	1c\	.
*	*	*	*	*Xlig	*
=9-	=9-	=9-	=9-	=9-	=9-
*lig	*	*	*	*	*
1E\	SAn-	.	.	1B\	.
1F\	.	.	.	1A\	.
*Xlig	*	*	*	*	*
=10-	=10-	=10-	=10-	=10-	=10-
1.E\	.	1r	.	1B\	.
!	!	!LO:TX:t=P:problem=S wielkie, przed kluczem, na początku pięciolinii	!	!	!
.	.	1B\	SAn-	1G/	.
2D/	.	.	.	.	.
!!linebreak:original
=11-	=11-	=11-	=11-	=11-	=11-
1C/	.	1.c\	.	1E/	.
*	*	*	*	*lig	*
1D\	.	.	.	1F/	.
.	.	2B\	.	.	.
=12-	=12-	=12-	=12-	=12-	=12-
1C/	.	2A/	.	1E/	.
.	.	2G/	.	.	.
*	*	*	*	*Xlig	*
1D\	.	1F/	.	1D/	.
=13-	=13-	=13-	=13-	=13-	=13-
*lig	*	*	*	*lig	*
1C/	.	0G/	.	1E/	.
1GG/	.	.	.	1D/	.
*Xlig	*	*	*	*Xlig	*
=14-	=14-	=14-	=14-	=14-	=14-
0C/;	-ctus.	0G/;;	-ctus	0E/;	-ctus.
!LO:LB:g=original	!	!	!	!LO:PB:g=original	!
=15-	=15-	=15-	=15-	=15-	=15-
*M2/2	*	*M2/2	*	*M2/2	*
*met(C|)	*	*met(C|)	*	*met(C|)	*
!LO:TX:t=P:problem=S wielkie, przed kluczem, na początku pięciolinii	!	!	!	!	!
*lig	*	*	*	*	*
!	!	!LO:TX:t=P:problem=S wielkie, przed kluczem	!	!	!
*	*	*lig	*	*	*
1E\	SAn-	1G/	SAn-	1E/	SAn-
*	*	*	*	*lig	*
1D\	.	1A\	.	1F/	.
*Xlig	*	*Xlig	*	*	*
=16-	=16-	=16-	=16-	=16-	=16-
1C/	.	1.c\	.	1E/	.
*	*	*	*	*Xlig	*
*	*	*	*	*lig	*
1GG/	.	.	.	1D/	.
.	.	2B\	.	.	.
=17-	=17-	=17-	=17-	=17-	=17-
*	*	*	*	*Xlig	*
*	*	*custos:d	*	*	*
1C/	.	1c\	.	1E/	.
!	!	!LO:LB:g=original	!	!	!
*	*	*	*	*lig	*
1BB/	.	1d\	.	1G/	.
=18-	=18-	=18-	=18-	=18-	=18-
2.C/	.	2c\	.	1E/	.
.	.	2G/	.	.	.
4BB/	.	.	.	.	.
*	*	*	*	*Xlig	*
*	*	*	*	*lig	*
1AA/	.	4A/	.	1C/	.
.	.	4B\	.	.	.
.	.	1c\	.	.	.
=19-	=19-	=19-	=19-	=19-	=19-
1GG/	.	.	.	1D/	.
.	.	2B\	.	.	.
*	*	*	*	*Xlig	*
*	*	*	*	*lig	*
2.C/	.	1.c\	.	1E/	.
4BB/	.	.	.	.	.
=20-	=20-	=20-	=20-	=20-	=20-
4AA/	.	.	.	1F/	.
4GG/	.	.	.	.	.
*custos:c	*	*	*	*	*
2FF/	.	2A/	.	.	.
!LO:LB:g=original	!	!	!	!	!
*	*	*	*	*Xlig	*
*	*	*	*	*lig	*
1C/	.	0G/	.	1E/	.
=21-	=21-	=21-	=21-	=21-	=21-
1GG/	.	.	.	1D/	.
*	*	*	*	*Xlig	*
!	!	!	!	!LO:TX:t=P:global:problem=oddech jako rozdzielacz słów, przeważnie na wysokości dźwięku poprzedzającego	!
2C/	-ctus	1G/	-ctus	1E/,	-ctus
2.C/	Do-	.	.	.	.
!!linebreak:original
=22-	=22-	=22-	=22-	=22-	=22-
*	*	*	*	*custos:a	*
.	.	0r	.	1G/	Do-
4D/	-mi-	.	.	.	.
2E\	-nus	.	.	.	.
!	!	!	!	!LO:LB:g=original	!
1F\	De-	.	.	1A\	-mi-
=23-	=23-	=23-	=23-	=23-	=23-
1E\	.	1G/	Do-	1B\	-nus
*	*	*	*	*lig	*
2AA/	-us	1A\	-mi-	1c\	De-
1A\	Sab-	.	.	.	.
=24-	=24-	=24-	=24-	=24-	=24-
.	.	1B\	-nus	1B\	.
!LO:TX:t=P:problem=# below	!	!	!	!	!
2G#X\	-ba-	.	.	.	.
*	*	*	*	*Xlig	*
*	*	*	*	*lig	*
1A\	-oth	2.c\	De-	1A\	-us
.	.	4d\	-us	.	.
=25-	=25-	=25-	=25-	=25-	=25-
2.E\	.	2e\	Sab-	1B\	.
.	.	2e\	-ba-	.	.
4E\	.	.	.	.	.
*	*	*	*	*Xlig	*
*	*	*custos:c	*	*	*
2AA/	.	1c\	-oth	1A\	.
2.C/	D(o-	.	.	.	.
!	!	!LO:LB:g=original	!	!	!
=26-	=26-	=26-	=26-	=26-	=26-
.	.	2r	.	1G/	.
4D/	-mi)-	.	.	.	.
2E\	-nus	2.c\	Do-	.	.
1F\	De-	.	.	1A\	ſab-
.	.	4c\	-mi-	.	.
.	.	2d\	-nus	.	.
=27-	=27-	=27-	=27-	=27-	=27-
1C/	-(us)	2e\	De-	1G/	-ba-
.	.	1c\	-us	.	.
2.F\	Sab-	.	.	1A\	-oth.
.	.	1A\	Sab-	.	.
4F\	-ba-	.	.	.	.
=28-	=28-	=28-	=28-	=28-	=28-
0E\;	-oth	.	.	0B\;	.
.	.	2G/	-ba-	.	.
.	.	1G/;	-oth.	.	.
!LO:LB:g=original	!	!	!	!LO:LB:g=original	!
=29-	=29-	=29-	=29-	=29-	=29-
*M2/2	*	*M2/2	*	*M2/2	*
*met(C|)	*	*met(C|)	*	*met(C|)	*
!LO:TX:t=P:problem=P wielkie, przed kluczem, na początku pięciolinii	!	!LO:TX:t=P:problem=P wielkie, przed kluczem, na początku pięciolinii	!	!LO:TX:t=P:problem=P wielkie, przed kluczem, na początku pięciolinii	!
0r	.	00r	.	1e\	Ple-
.	.	.	.	1d\	-ni
=30-	=30-	=30-	=30-	=30-	=30-
1r	.	.	.	1B\	ſunt
*	*	*	*	*lig	*
1A\	Ple-	.	.	1c\	C(ae)-
!!linebreak:original
=31-	=31-	=31-	=31-	=31-	=31-
2G\	-ni	2r	.	1B\	.
2E\	ſunt	2e\	Ple-	.	.
*	*	*	*	*Xlig	*
1F\	C(ae)-	2c\	-ni	1A\	.
.	.	2A/	ſunt	.	.
=32-	=32-	=32-	=32-	=32-	=32-
2E\	-li	1e\	C(ae)-	1B\	.
2G\	et	.	.	.	.
*	*	*	*	*lig	*
1D\	ter-	2.d\	-li	1A\	-li
*	*	*custos:b	*	*	*
.	.	4c\	et	.	.
!	!	!LO:LB:g=original	!	!	!
=33-	=33-	=33-	=33-	=33-	=33-
2E\	-ra	2B\	ter-	1G/,	.
2E\	Ple-	2B\	-ra	.	.
*	*	*	*	*Xlig	*
2C/	-ni	2r	.	1E/	et
2AA/	ſunt	2e\	ple-	.	.
=34-	=34-	=34-	=34-	=34-	=34-
*	*	*	*	*lig	*
1D\	C(ae)-	2d\	-ni	1F/	ter-
.	.	2B\	ſunt	.	.
2C/	-li	1c\	C(ae)-	1E/	.
1C/	et	.	.	.	.
*	*	*	*	*Xlig	*
=35-	=35-	=35-	=35-	=35-	=35-
*	*	*	*	*lig	*
.	.	2d\	-li	1D/	.
2BB/	.	2.d\	et	.	.
*custos:g	*	*	*	*	*
1C/	.	.	.	1E/	.
.	.	4c\	.	.	.
.	.	1c\	ter-	.	.
*	*	*	*	*Xlig	*
!LO:LB:g=original	!	!	!	!	!
=36-	=36-	=36-	=36-	=36-	=36-
*	*	*	*	*lig	*
1GG/	ter-	.	.	1D/	-ra
.	.	2B\	.	.	.
*	*	*	*	*custos:g	*
2C/	-ra	2c\	-ra	1C/	.
4C/	glo-	2.e\	glo-	.	.
4D/	.	.	.	.	.
*	*	*	*	*Xlig	*
!	!	!	!	!LO:LB:g=original	!
=37-	=37-	=37-	=37-	=37-	=37-
4E\	.	.	.	1G/	glo-
4C/	.	4e\	-ri-	.	.
2G\	.	2B\	-a	.	.
2.C/	.	2c\	tu-	1E/	-ri-
.	.	2.e\	.	.	.
4BB/	-ri-	.	.	.	.
=38-	=38-	=38-	=38-	=38-	=38-
1AA/	-a	.	.	1C/	-a
.	.	4d\	.	.	.
.	.	1c\	.	.	.
*	*	*	*	*lig	*
1GG/	tu-	.	.	1D/	tu-
*	*	*custos:c	*	*	*
.	.	2B\	.	.	.
!!pagebreak:original
!	!	!LO:LB:g=original	!	!	!
=39-	=39-	=39-	=39-	=39-	=39-
1C/	-a	1c\	-a	1E/	.
*	*	*	*	*Xlig	*
*	*ij	*	*	*lig	*
2FF/	glo-	2c\	glo-	1F/	.
4FF/	-ri-	4c\	-ri-	.	.
4FF/	-a	4c\	-a	.	.
=40-	=40-	=40-	=40-	=40-	=40-
*lig	*	*	*	*	*
1C/	tu-	4.e\	tu-	1E/	.
.	.	8d\	.	.	.
.	.	1c\	.	.	.
*	*	*	*	*Xlig	*
*	*	*	*	*lig	*
1GG/	.	.	.	1D/	-a
.	.	2B\	-a	.	.
*Xlig	*	*	*	*	*
=41-	=41-	=41-	=41-	=41-	=41-
0C/;	-a	0c\;	.	0E/;;	.
*	*Xij	*	*	*Xlig	*
!LO:LB:g=original	!	!LO:PB:g=original	!	!	!
=42-	=42-	=42-	=42-	=42-	=42-
*M3/1	*	*M3/1	*	*M2/1	*
*	*	*	*	*met(C|)	*
!LO:TX:t=P::problem=to w zasadzie jest&colon; metrum C|, a potem proporcja&colon; połączenie C i 3/1	!	!	!	!LO:TX:t=P:problem=metrum C|, \nrozwiązanie proporcji zaproponowane przez Jacka w problemie 297, tam też początek transkrypcji w humdrum	!
!LO:TX:t=P:problem=O wielkie, przed kluczem, na początku pięciolinii	!	!LO:TX:t=P:problem=O wielkie, przed kluczem, na początku pięciolinii	!	!LO:N:vis=1	!
*	*	*	*	*lig	*
1AA/	O-	1A\	O-	0.E/	O-
1AA/	-ſan-	1A\	-ſan-	.	.
1AA/	-na	1A\	-na	.	.
=43-	=43-	=43-	=43-	=43-	=43-
!	!	!	!	!LO:N:vis=1	!
0D\	in	0A\	in	0.F/	.
1D\	ex-	1B\	ex-	.	.
*	*	*	*	*Xlig	*
=44-	=44-	=44-	=44-	=44-	=44-
!	!	!	!	!LO:N:vis=1	!
0.C/	-cel-	2c\	-cel-	0.E/	.
.	.	2d\	.	.	.
.	.	2e\	.	.	.
.	.	2d\	.	.	.
*	*	*col	*	*	*
.	.	0c\	.	.	.
=45-	=45-	=45-	=45-	=45-	=45-
!	!	!	!	!LO:N:vis=1	!
0.GG/	-ſis	.	.	0.D/	.
.	.	0B\	.	.	.
*	*	*Xcol	*	*	*
=46-	=46-	=46-	=46-	=46-	=46-
!	!	!	!	!LO:N:vis=1	!
0.C/	.	0.c\	-ſis	0.E/	.
=47-	=47-	=47-	=47-	=47-	=47-
*	*	*	*	*lig	*
!	!	!	!	!LO:N:vis=1	!
1G\	O-	1d\	O-	0.B\	.
1G\	-ſan-	1d\	-ſan-	.	.
*	*	*custos:e	*	*	*
1G\	-na	1d\	-na	.	.
!	!	!LO:LB:g=original	!	!	!
=48-	=48-	=48-	=48-	=48-	=48-
!	!	!	!	!LO:N:vis=1	!
0C/	in	0e\	in	0.c\	.
1AA/	ex-	1e\	ex-	.	.
*	*	*	*	*Xlig	*
!!linebreak:original
=49-	=49-	=49-	=49-	=49-	=49-
*custos:a	*	*	*	*	*
*	*	*	*	*lig	*
!	!	!	!	!LO:N:vis=1	!
0.E\	-cel-	0.e\	-cel-	0.B\	.
*M2/2	*	*	*	*	*
*met(C|)	*	*	*	*	*
!LO:P:g=original	!	!	!	!	!
=50-	=50-	=50-	=50-	=50-	=50-
*M2/2	*	*M2/2	*	*	*
*met(C|)	*	*met(C|)	*	*	*
*	*	*	*	*custos:g	*
!	!	!	!	!LO:TX:t=P:problem=w Cantus nie ma zmiany metrum, bo tam całość od początku w C|	!
2AA/	-ſis	2c,\	-ſis	1A\	.
2FF/	O-	2c\	O-	.	.
*	*	*	*	*Xlig	*
!	!	!	!	!LO:LB:g=original	!
2C/	-ſan-	2c\	-ſan-	1G/	.
2GG/	-na	2B\	-na	.	.
=51-	=51-	=51-	=51-	=51-	=51-
4AA/	in	4A/	in	1E/	-ſan-
4AA/	ex-	4A/	ex-	.	.
2E\	-cel-	2G/	-cel-	.	.
2AA/	-ſis	2A/	-ſis	1C/,	-na
*	*	*	*ij	*	*
4AA/	in	4c\	O-	.	.
4C/	ex-	4c\	-ſan-	.	.
=52-	=52-	=52-	=52-	=52-	=52-
1GG/	-cel-	4B\	-na	1D/	in
.	.	2c\	in	.	.
.	.	4B\	ex-	.	.
1C/	-ſis	1c\	-cel-	1E/	ex-
=53-	=53-	=53-	=53-	=53-	=53-
*	*ij	*	*	*	*
1FF/	in	1A\	.	1F/	-cel-
1C/	ex-	1G/	.	1E/	.
=54-	=54-	=54-	=54-	=54-	=54-
1GG/	-cel-	1G/	.	1D/	.
00C/;	-ſis	00G/;	-sis	00E/;	-ſis
*	*Xij	*	*Xij	*	*
!LO:LB:g=original	!	!LO:LB:g=original	!	!	!
=55||-	=55||-	=55||-	=55||-	=55||-	=55||-
*M2/2	*	*M2/2	*	*M2/2	*
*met(C|)	*	*met(C|)	*	*met(C|)	*
!	!	!	!	!LO:TX:t=P:problem=B wielkie, przed kluczem, na początku pięciolinii	!
0r	.	00r	.	1e\	Be-
.	.	.	.	1B\	-ne-
=56-	=56-	=56-	=56-	=56-	=56-
!LO:TX:t=P:problem=B wielkie, przed kluczem, na początku pięciolinii	!	!	!	!	!
*	*	*	*	*lig	*
1A\	Be-	.	.	1c\	-di-
1E\	-ne-	.	.	1B\	.
*	*	*	*	*Xlig	*
=57-	=57-	=57-	=57-	=57-	=57-
1F\	-di-	0r	.	1A\	.
2E\	-ctus	.	.	1B\	-ctus
2E\	qui	.	.	.	.
=58-	=58-	=58-	=58-	=58-	=58-
*lig	*	*	*	*lig	*
1G\	Ve-	1r	.	1B\	qui
*	*	*	*	*custos:d	*
!	!	!LO:TX:t=P:problem=B wielkie, przed kluczem, na początku pięciolinii	!	!	!
1A\	.	1e\	Be-	1c\	.
*Xlig	*	*	*	*Xlig	*
!	!	!	!	!LO:LB:g=original	!
=59-	=59-	=59-	=59-	=59-	=59-
2.G\	.	1B\	-ne-	1d\	.
4F\	.	.	.	.	.
*	*	*	*	*lig	*
4E\	.	1c\	-di-	1e\	Ve-
4D/	.	.	.	.	.
2C/	.	.	.	.	.
!!linebreak:original
=60-	=60-	=60-	=60-	=60-	=60-
2.D/	.	2B\	-ctus	1d\	.
.	.	2A/	qui	.	.
4E\	.	.	.	.	.
*	*	*	*	*Xlig	*
4F\	.	2.A/	Ve-	1c\	.
4G\	.	.	.	.	.
*custos:d	*	*	*	*	*
2A\	.	.	.	.	.
.	.	4G/	.	.	.
!LO:LB:g=original	!	!	!	!	!
=61-	=61-	=61-	=61-	=61-	=61-
1D\	.	4F/	.	1d\	.
.	.	4G/	.	.	.
.	.	2.A/	.	.	.
*	*	*	*	*lig	*
1A\	.	.	.	1c\	-nit
.	.	4B\	.	.	.
.	.	4c\	.	.	.
.	.	4A/	.	.	.
=62-	=62-	=62-	=62-	=62-	=62-
1G\,	-nit	2d\	.	1B\,	.
.	.	2B\	-nit	.	.
*	*	*	*	*Xlig	*
*	*	*	*	*lig	*
1E\	in	2r	.	1G/	in
*	*	*custos:d	*	*	*
.	.	2B\	in	.	.
!	!	!LO:LB:g=original	!	!	!
=63-	=63-	=63-	=63-	=63-	=63-
2.D/	no-	2.d\	no-	1A\	.
4D/	-mi-	4d\	-mi-	.	.
*	*	*	*	*Xlig	*
1G\	-ne	1d\	-ne	1B\,	.
=64-	=64-	=64-	=64-	=64-	=64-
*	*	*	*	*lig	*
2.C/	Do-	1.e\	Do-	1c\	No-
4D/	.	.	.	.	.
2.E\	.	.	.	1B\	.
.	.	2e\	-mi-	.	.
4E\	-mi-	.	.	.	.
*	*	*	*	*Xlig	*
=65-	=65-	=65-	=65-	=65-	=65-
*	*	*lig	*	*lig	*
1AA/	-ni	1c\	-ni	1A\	.
2r	.	1B\	.	1G/	.
1GG/	in	.	.	.	.
*	*	*Xlig	*	*Xlig	*
=66-	=66-	=66-	=66-	=66-	=66-
.	.	0r	.	1E/	-mi-
1AA/	no-	.	.	.	.
.	.	.	.	1C/,	-ne
2AA/	-mi-	.	.	.	.
=67-	=67-	=67-	=67-	=67-	=67-
*custos:c	*	*	*	*	*
*	*	*	*	*lig	*
1BB/	-ne	2r	.	1D/	Do-
.	.	1G/	in	.	.
!LO:LB:g=original	!	!	!	!	!
2.C/	Do-	.	.	1E/	.
.	.	2.A/	No-	.	.
4BB/	.	.	.	.	.
*	*	*	*	*Xlig	*
!!linebreak:original
=68-	=68-	=68-	=68-	=68-	=68-
*	*	*	*	*lig	*
2AA/	.	.	.	1F/	.
.	.	4A/	-mi-	.	.
2D/	.	2B\	-ne	.	.
1C/	.	1.c\	Do-	1E/	.
*	*	*	*	*Xlig	*
=69-	=69-	=69-	=69-	=69-	=69-
2.GG/	.	.	.	1D/	-mi-
.	.	2B\	-mi-	.	.
4GG/	-mi-	.	.	.	.
00C/;	-ni	00c\;	-ni.	00E/;	-ni
!LO:LB:g=original	!	!LO:LB:g=original	!	!LO:PB:g=original	!
=70||-	=70||-	=70||-	=70||-	=70||-	=70||-
*M3/1	*	*M3/1	*	*M2/1	*
*	*	*	*	*met(C|)	*
!	!	!	!	!LO:SIC:t=sprawa metrum rozwiązana jak wcześniej	!
!	!	!	!	!LO:SIC:t=metrum C|, \nrozwiązanie proporcji zaproponowane przez Jacka w problemie 297, tam też początek transkrypcji w humdrum	!
!LO:TX:t=P:problem=O wielkie, przed kluczem, na początku pięciolinii	!	!LO:TX:t=P:problem=O wielkie, przed kluczem, na początku pięciolinii	!	!LO:N:vis=1	!
*	*	*	*	*lig	*
1AA/	O-	1A\	O-	0.E/	O-
1AA/	-ſan-	1A\	-ſan-	.	.
1AA/	-na	1A\	-na	.	.
=71-	=71-	=71-	=71-	=71-	=71-
!	!	!	!	!LO:N:vis=1	!
0D\	in	0A\	in	0.F/	.
1D\	ex-	1B\	ex-	.	.
*	*	*	*	*Xlig	*
=72-	=72-	=72-	=72-	=72-	=72-
!LO:N:vis=0	!	!	!	!LO:N:vis=1	!
0.C/	-cel-	2c\	-cel-	0.E/	.
.	.	2d\	.	.	.
.	.	2e\	.	.	.
.	.	2d\	.	.	.
*	*	*col	*	*	*
.	.	0c\	.	.	.
=73-	=73-	=73-	=73-	=73-	=73-
!LO:N:vis=0	!	!	!	!LO:N:vis=1	!
0.GG/	.	.	.	0.D/	.
.	.	0B\	.	.	.
*	*	*Xcol	*	*	*
=74-	=74-	=74-	=74-	=74-	=74-
!	!	!	!	!LO:N:vis=1	!
0.C/	-ſis	0.c\	-ſis	0.E/	.
=75-	=75-	=75-	=75-	=75-	=75-
*	*	*	*	*lig	*
!	!	!	!	!LO:N:vis=1	!
1G\	O-	1d\	O-	0.B\	.
1G\	-ſan-	1d\	-ſan-	.	.
*	*	*custos:e	*	*	*
1G\	-na	1d\	-na	.	.
!	!	!LO:LB:g=original	!	!	!
=76-	=76-	=76-	=76-	=76-	=76-
!	!	!	!	!LO:N:vis=1	!
0C/	in	0e\	in	0.c\	.
1AA/	ex-	1e\	ex-	.	.
*custos:e	*	*	*	*	*
*	*	*	*	*Xlig	*
!LO:LB:g=original	!	!	!	!	!
=77-	=77-	=77-	=77-	=77-	=77-
!	!	!LO:N:vis=00	!	!	!
*	*	*	*	*lig	*
!	!	!	!	!LO:N:vis=1	!
0.E\	-cel-	0.e\	-cel-	0.B\	.
=78-	=78-	=78-	=78-	=78-	=78-
*M2/2	*	*M2/2	*	*	*
*met(C|)	*	*met(C|)	*	*	*
*	*	*	*	*custos:g	*
!	!	!	!	!LO:TX:t=P:problem=w Cantus nie ma zmiany metrum, bo tam całość od początku w C|	!
2AA/	-ſis	2c\	-ſis	1A\	.
2FF/	O-	2c\	O-	.	.
*	*	*	*	*Xlig	*
2C/	-ſan-	2c\	-ſan-	1G/	.
2GG/	-na	2B\	-na	.	.
=79-	=79-	=79-	=79-	=79-	=79-
4AA/	in	4A/	in	1E/	-ſan-
4AA/	ex-	4A/	ex-	.	.
2E\	-cel-	2G#X/	-cel-	.	.
2AA/	-ſis	2A/	-ſis	1C/	-na
*	*	*	*ij	*	*
4AA/	in	4c\	O-	.	.
4C/	ex-	4c\	-ſan-	.	.
=80-	=80-	=80-	=80-	=80-	=80-
1GG/	-cel-	4B\	-na	1D/	in
.	.	2c\	in	.	.
.	.	4B\	ex-	.	.
1C/	-ſis	1c\,	-cel-	1E/	ex-
=81-	=81-	=81-	=81-	=81-	=81-
*	*	*custos:g	*	*	*
*	*	*	*	*lig	*
1FF/	in	1A\	.	1F/	-cel-
*custos:g	*	*	*	*	*
!	!	!LO:PB:g=original	!	!	!
1C/	ex-	1G/	.	1E/	.
*	*	*	*	*Xlig	*
!LO:PB:g=original	!	!	!	!	!
=82-	=82-	=82-	=82-	=82-	=82-
1GG/	-cel-	1G/	.	1D/	-ſis.
!	!	!	!	!LO:N:vis=00	!
4C/	-ſis	1G/	-sis	[y1E/;	.
*	*	*	*Xij	*	*
4E\	O-	.	.	.	.
4E\	-ſan-	.	.	.	.
4D/	-na	.	.	.	.
=83-	=83-	=83-	=83-	=83-	=83-
4C/	in	4r	.	00E/_yy	.
4BB/	ex-	4e\	O-	.	.
2GG#X/	-cel-	4e\	-san-	.	.
.	.	4d\	-na	.	.
2AA/	.	4c\	in	.	.
.	.	4A/	ex-	.	.
!	!	!LO:TX:t=P:problem=# below	!	!	!
2E\	.	2G#X/	-cel-	.	.
=84-	=84-	=84-	=84-	=84-	=84-
2AA/	-ſis	4A,/	-ſis	.	.
*	*	*	*ij	*	*
.	.	4e\	O-	.	.
2r	.	4e\	-san-	.	.
.	.	4d\	-na	.	.
4r	.	4c\	in	.	.
4C/	O-	4A/	ex-	.	.
4C/	-ſan-	2G/	-cel-	.	.
4BB/	-na	.	.	.	.
!!linebreak:original
=85-	=85-	=85-	=85-	=85-	=85-
!	!	!LO:N:vis=4	!	!	!
4AA/	in	2A/	-ſis	00E/_yy	.
4AA/	ex-	.	.	.	.
2EE/	-cel-	2r	.	.	.
2.AA/	-ſis	2r	.	.	.
.	.	2c\	O-	.	.
*	*ij	*	*	*	*
4AA/	O-	.	.	.	.
=86-	=86-	=86-	=86-	=86-	=86-
2AA/	-ſan-	2c\	-san-	.	.
*custos:c	*	*	*	*	*
2BB/	-na	2B\	-na	.	.
!LO:LB:g=original	!	!	!	!	!
2C/	in	2A/	in	.	.
!	!	!LO:TX:t=P:problem=# below	!	!	!
2E\	ex-	2G#X/	ex-	.	.
=87-	=87-	=87-	=87-	=87-	=87-
0AA/	-cel-	0A\	-cel-	00.E/]yy	.
=88-	=88-	=88-	=88-	=88-	=88-
!	!	!LO:TX:t=P:problem=# below	!	!	!
00EE/;;	-ſis	00G#X/;;	-ſis	.	.
=-	=-	=-	=-	=-	=-
*-	*-	*-	*-	*-	*-
!!!system-decoration: [(s1,s2,s3)]
!!!EED: Leszek Kubiak
!!!EEV: 2021-03-24
!!!ENC: Mateusz Solarz
!!!END: 2021-03-09
